X: 23589
T: Lilies In The Field, The
R: reel
M: 4/4
K: Dmajor
Addc A2AB|cBcd edcd|Addc A2AB|BAGE EDD2:|
d2fd Adfd|cdef gece|d2fd Adfd|ceag eddc|d2fd Adfd|
cdef g2fg|af~f2 geed|eaag eddc||
Addc A2AB|cBcd ecdc|Addc A2AB|BAGE EDD2:|
d2fd Adfd|cdef gece|d2fd Adfd|ceag eddc|d2fd Adfd|
cdef g2fg|afge fdcd|eaag eddc||

